resources/svg/text-bold.svg

<svg xmlns="http://www.w3.org/2000/svg" fill="none" viewBox="0 0 14 14"><path fill="currentColor" fill-rule="evenodd" d="M3.5 0.25C3.08579 0.25 2.75 0.585786 2.75 1V6.5V13C2.75 13.1989 2.82902 13.3897 2.96967 13.5303C3.11032 13.671 3.30109 13.75 3.5 13.75H7.25C9.45914 13.75 11.25 11.9591 11.25 9.75C11.25 8.24698 10.421 6.93758 9.19533 6.25407C9.84604 5.61853 10.25 4.73144 10.25 3.75C10.25 1.817 8.683 0.25 6.75 0.25H3.5ZM6.75 5.75C7.85457 5.75 8.75 4.85457 8.75 3.75C8.75 2.64543 7.85457 1.75 6.75 1.75H4.25V5.75H6.75ZM4.25 7.25V12.25H7.25C8.63071 12.25 9.75 11.1307 9.75 9.75C9.75 8.36929 8.63071 7.25 7.25 7.25H6.75H4.25Z" clip-rule="evenodd"></path></svg>

<svg xmlns="http://www.w3.org/2000/svg" fill="none" viewBox="0 0 14 14"><path fill="currentColor" fill-rule="evenodd" d="M3.5.25a.75.75 0 0 0-.75.75v12a.75.75 0 0 0 .75.75h3.75a4 4 0 0 0 1.945-7.496A3.5 3.5 0 0 0 6.75.25H3.5Zm3.25 5.5a2 2 0 1 0 0-4h-2.5v4h2.5Zm-2.5 1.5v5h3a2.5 2.5 0 0 0 0-5h-3Z" clip-rule="evenodd"/></svg>
